brandFactory_export/2.Regular/Millenials_2Regular.svg

<?xml version="1.0" encoding="UTF-8"?>
<svg width="24px" height="24px" viewBox="0 0 24 24" version="1.1" xmlns="http://www.w3.org/2000/svg" xmlns:xlink="http://www.w3.org/1999/xlink">
    <title>2.Regular/Millenials_2Regular</title>
    <g id="Symbols" stroke="none" stroke-width="1" fill="none" fill-rule="evenodd">
        <g id="2.Regular/Millenials_2Regular" fill="#5CB615" fill-rule="nonzero">
            <path d="M13.8016807,15.0319328 C14.0840336,14.7663866 14.2285714,14.2991597 14.2285714,13.6403361 C14.2285714,12.9848739 14.087395,12.5142857 13.7983193,12.2453782 C13.5193277,11.9798319 13.0487395,11.8487395 12.3966387,11.8487395 C11.7445378,11.8487395 11.2739496,11.9798319 10.9983193,12.2420168 C10.712605,12.5109244 10.5714286,12.9815126 10.5714286,13.6403361 C10.5714286,14.2991597 10.7159664,14.7663866 10.9983193,15.0352941 C11.3411765,15.3579832 11.9462185,15.4252101 12.3966387,15.4252101 C12.8470588,15.4252101 13.4554622,15.3579832 13.8016807,15.0319328 L13.8016807,15.0319328 Z M12.3966387,10.3058824 C13.4722689,10.3058824 14.312605,10.5848739 14.897479,11.1327731 C15.502521,11.7008403 15.8117647,12.5478992 15.8117647,13.6403361 C15.8117647,14.7361345 15.502521,15.5798319 14.897479,16.1478992 C14.3159664,16.692437 13.4756303,16.9714286 12.4,16.9714286 C11.3210084,16.9714286 10.4840336,16.692437 9.90252101,16.1478992 C9.29747899,15.5798319 8.99159664,14.7361345 8.99159664,13.6403361 C8.99159664,12.5478992 9.29747899,11.7008403 9.90252101,11.1327731 C10.4806723,10.5815126 11.3176471,10.3058824 12.3966387,10.3058824 Z M7.92941176,22.0773109 L16.8739496,22.0773109 C16.8672269,21.6268908 16.7630252,21.0252101 16.3361345,20.5915966 C15.8386555,20.0840336 15.0487395,19.9798319 14.4739496,19.9798319 L10.3193277,19.9798319 C9.74789916,19.9798319 8.95798319,20.0840336 8.46722689,20.5882353 C8.04033613,21.0218487 7.93613445,21.6268908 7.92941176,22.0773109 L7.92941176,22.0773109 Z M14.4739496,18.4336134 C15.7378151,18.4336134 16.7764706,18.8067227 17.4756303,19.5193277 C18.1176471,20.1714286 18.4571429,21.0756303 18.4571429,22.1378151 L18.4571429,23.2470588 C18.4571429,23.4554622 18.2823529,23.6235294 18.0705882,23.6235294 L6.73613445,23.6235294 C6.5210084,23.6235294 6.34957983,23.4554622 6.34957983,23.2470588 L6.34957983,22.1378151 C6.34957983,21.0756303 6.68571429,20.1680672 7.32773109,19.5193277 C8.02352941,18.8067227 9.05882353,18.4336134 10.3226891,18.4336134 L14.4739496,18.4336134 Z M20.5647059,3.31092437 C20.8537815,3.6302521 20.8268908,4.11764706 20.5008403,4.40672269 C20.3495798,4.53781513 20.1613445,4.60168067 19.9731092,4.60168067 C19.7546218,4.60168067 19.5394958,4.51428571 19.3848739,4.34285714 C16.6554622,1.35462185 12.4201681,1.54285714 12.3764706,1.55294118 C7.83193277,1.60336134 5.43193277,4.13445378 5.41176471,4.15798319 C5.11596639,4.47394958 4.61512605,4.49411765 4.29243697,4.21176471 C3.9697479,3.92605042 3.94285714,3.43529412 4.23865546,3.11932773 C4.35294118,2.99495798 7.13277311,0.0638655462 12.3260504,0.00672268908 C12.4840336,-2.03613168e-16 17.3142857,-0.245378151 20.5647059,3.31092437 Z M12.3294118,3.40504202 C12.4705882,3.39831933 16.312605,3.26722689 18.7697479,5.95294118 C19.0588235,6.27226891 19.0319328,6.75966387 18.7058824,7.04537815 C18.3764706,7.33109244 17.8789916,7.30420168 17.5865546,6.98487395 C15.6436975,4.85378151 12.4033613,4.9512605 12.3697479,4.9512605 C9.14957983,4.98487395 7.22352941,7.00504202 7.20672269,7.02521008 C7.0487395,7.19327731 6.83361345,7.27731092 6.61848739,7.27731092 C6.42689076,7.27731092 6.23865546,7.21008403 6.08739496,7.0789916 C5.76470588,6.79327731 5.73781513,6.30588235 6.0302521,5.98991597 C6.12773109,5.88571429 8.41680672,3.44537815 12.3294118,3.40504202 Z M16.5848739,9.67394958 C16.2554622,9.95966387 15.7579832,9.93277311 15.4655462,9.61344538 C14.3361345,8.37983193 12.4168067,8.42352941 12.3932773,8.42352941 C10.4840336,8.44705882 9.37815126,9.59663866 9.33109244,9.64369748 C9.17647059,9.80840336 8.96134454,9.89243697 8.74621849,9.89243697 C8.55798319,9.89243697 8.36638655,9.82521008 8.21512605,9.69411765 C7.89579832,9.40504202 7.86890756,8.9210084 8.16134454,8.60504202 C8.22521008,8.53445378 9.75462185,6.90420168 12.3529412,6.87731092 C12.4336134,6.88067227 15.0016807,6.78319328 16.6453782,8.58151261 C16.9344538,8.90084034 16.9109244,9.39159664 16.5848739,9.67394958 L16.5848739,9.67394958 Z" id="Millenials_2Regular"></path>
        </g>
    </g>
</svg>

<svg width="24" height="24" viewBox="0 0 24 24" xmlns="http://www.w3.org/2000/svg"><path d="M13.802 15.032c.282-.266.427-.733.427-1.392 0-.655-.142-1.126-.43-1.395-.28-.265-.75-.396-1.402-.396-.652 0-1.123.13-1.399.393-.285.269-.427.74-.427 1.398 0 .66.145 1.126.427 1.395.343.323.948.39 1.399.39.45 0 1.058-.067 1.405-.393zm-1.405-4.726c1.075 0 1.916.279 2.5.827.606.568.915 1.415.915 2.507 0 1.096-.31 1.94-.915 2.508-.581.544-1.421.823-2.497.823-1.079 0-1.916-.279-2.497-.823-.606-.568-.911-1.412-.911-2.508 0-1.092.305-1.94.91-2.507.579-.551 1.416-.827 2.495-.827zM7.929 22.077h8.945c-.007-.45-.111-1.052-.538-1.485-.497-.508-1.287-.612-1.862-.612h-4.155c-.571 0-1.361.104-1.852.608-.427.434-.53 1.039-.538 1.49zm6.545-3.643c1.264 0 2.302.373 3.002 1.085.642.652.981 1.557.981 2.619v1.11a.382.382 0 01-.386.376H6.736a.38.38 0 01-.386-.377v-1.11c0-1.061.336-1.969.978-2.618.696-.712 1.73-1.085 2.995-1.085h4.15zm6.09-15.123c.29.32.263.807-.063 1.096a.802.802 0 01-1.116-.064c-2.73-2.988-6.965-2.8-7.009-2.79-4.544.05-6.944 2.581-6.964 2.605a.811.811 0 01-1.12.054.76.76 0 01-.053-1.093C4.353 2.995 7.133.064 12.326.007c.158-.007 4.988-.252 8.239 3.304zm-8.235.094c.142-.007 3.984-.138 6.44 2.548.29.32.263.807-.063 1.092a.805.805 0 01-1.12-.06C15.645 4.854 12.404 4.95 12.37 4.95c-3.22.034-5.146 2.054-5.163 2.074a.808.808 0 01-1.12.054.76.76 0 01-.057-1.09c.098-.103 2.387-2.544 6.3-2.584zm4.256 6.269a.805.805 0 01-1.12-.06c-1.129-1.234-3.048-1.19-3.072-1.19-1.909.023-3.015 1.173-3.062 1.22a.814.814 0 01-1.116.05.762.762 0 01-.054-1.089c.064-.07 1.594-1.7 4.192-1.728.08.004 2.649-.094 4.292 1.705.29.319.266.81-.06 1.092z" fill="#5CB615" fill-rule="nonzero"/></svg>
